src/images/single-assets/VST.svg

<svg width="200" height="200" viewBox="0 0 200 200" fill="none" xmlns="http://www.w3.org/2000/svg">
<path d="M100 0C44.7706 0 0 44.7707 0 100C0 155.229 44.7706 200 100 200C155.224 200 200 155.229 200 100C200 44.7707 155.224 0 100 0Z" fill="#F8F9F0"/>
<path d="M100 20.0003C55.8178 20.0003 20 55.8181 20 100C20 144.182 55.8178 180 100 180C144.182 180 180 144.182 180 100C180 55.8181 144.182 20.0003 100 20.0003Z" fill="#011023"/>
<path d="M82.5651 131.664C85.7791 135.088 89.7678 137.27 94.5364 138.197V105.665C94.013 105.46 93.3168 105.23 92.4374 104.963C91.5528 104.701 90.5948 104.471 89.5636 104.267C85.7268 103.23 81.9422 102 78.2152 100.603C74.483 99.2051 71.1382 97.3312 68.1859 94.9966C65.2284 92.662 62.8729 89.7568 61.1193 86.2811C59.3553 82.8054 58.4759 78.4713 58.4759 73.2786C58.4759 67.9813 59.4862 63.3121 61.5067 59.2763C63.5272 55.2301 66.1916 51.8276 69.5103 49.0795C72.8185 46.3262 76.6554 44.1957 81.0105 42.6986C85.3603 41.1911 89.8725 40.2908 94.5364 39.9715V28.0002H103.702V39.9872C108.366 40.5054 112.747 41.5209 116.841 43.0179C120.934 44.5255 124.541 46.6036 127.645 49.247C130.749 51.8957 133.287 55.1934 135.261 59.135C137.229 63.0818 138.37 67.751 138.679 73.1425H116.61C116.5 68.9916 115.213 65.4635 112.721 62.5531C110.235 59.648 107.23 58.1875 103.713 58.1875V85.7367C104.958 86.0508 106.225 86.3597 107.523 86.6737C108.821 86.9826 110.193 87.349 111.643 87.7625C119.317 89.8354 125.216 92.4107 129.362 95.4677C133.502 98.5246 136.564 101.728 138.527 105.042C140.495 108.355 141.663 111.679 142.029 115.008C142.39 118.332 142.568 121.279 142.568 123.875C142.568 126.163 142.003 129.031 140.862 132.512C139.721 135.993 137.674 139.38 134.722 142.704C131.764 146.028 127.807 148.991 122.829 151.582C117.856 154.178 111.481 155.727 103.713 156.251V169.478H94.5469V156.251C82.942 155.424 73.8706 151.843 67.3484 145.515C60.8157 139.186 57.0312 129.9 56 117.652H77.9221C77.8069 123.572 79.3616 128.23 82.5651 131.664ZM89.4118 58.9727C87.7525 59.4909 86.2502 60.3023 84.9049 61.3806C83.5649 62.4746 82.5023 63.8199 81.7224 65.4269C80.9477 67.0391 80.5551 68.9287 80.5551 71.1011C80.5551 74.5349 81.6386 77.1731 83.8214 79.0418C85.9937 80.9053 89.5689 82.4128 94.5469 83.554V58.1875C92.7724 58.1875 91.066 58.4493 89.4118 58.9727ZM109.544 136.878C111.564 136.197 113.381 135.239 114.982 133.999C116.584 132.758 117.908 131.219 118.94 129.398C119.971 127.592 120.5 125.435 120.5 122.938C120.5 118.892 119.228 115.861 116.689 113.836C114.15 111.815 109.826 109.973 103.713 108.313V138.197C105.571 137.993 107.523 137.553 109.544 136.878Z" fill="#F8F9F0"/>
<path d="M104.478 38.806V39.544L105.221 38.806H104.478Z" fill="#011023"/>
<path d="M107.063 38.806L104.478 41.3866V42.9046L108.581 38.806H107.063Z" fill="#011023"/>
<path d="M110.466 38.806L104.478 44.789V46.307L111.984 38.806H110.466Z" fill="#011023"/>
<path d="M113.868 38.806L104.478 48.1914V49.7094L115.386 38.806H113.868Z" fill="#011023"/>
<path d="M117.271 38.806L104.478 51.5939V53.1171L118.789 38.806H117.271Z" fill="#011023"/>
<path d="M120.673 38.806L104.478 54.9963V56.5195L122.191 38.806H120.673Z" fill="#011023"/>
<path d="M124.076 38.806L104.478 58.404V59.922L125.599 38.806H124.076Z" fill="#011023"/>
<path d="M127.478 38.806L104.478 61.8064V63.3244L129.001 38.806H127.478Z" fill="#011023"/>
<path d="M130.886 38.806L104.478 65.2088V66.7268L132.404 38.806H130.886Z" fill="#011023"/>
<path d="M134.288 38.806L104.478 68.6112V70.1292L135.806 38.806H134.288Z" fill="#011023"/>
<path d="M137.69 38.806L104.478 72.0137V73.5317L139.208 38.806H137.69Z" fill="#011023"/>
<path d="M141.093 38.806L104.478 75.4161V76.9341L142.611 38.806H141.093Z" fill="#011023"/>
<path d="M144.495 38.806L104.478 78.8185V80.3365L146.013 38.806H144.495Z" fill="#011023"/>
<path d="M148.699 38.806H147.898L104.478 82.221V83.0271H105.195L148.699 39.5231V38.806Z" fill="#011023"/>
<path d="M148.699 41.4014L107.079 83.0262H108.597L148.699 42.9247V41.4014Z" fill="#011023"/>
<path d="M148.699 44.8096L110.481 83.0268H112.005L148.699 46.3277V44.8096Z" fill="#011023"/>
<path d="M148.698 48.2123L113.884 83.027H115.407L148.698 49.7303V48.2123Z" fill="#011023"/>
<path d="M148.699 51.6142L117.292 83.0265H118.81L148.699 53.1322V51.6142Z" fill="#011023"/>
<path d="M148.698 55.0169L120.694 83.0267H122.212L148.698 56.5349V55.0169Z" fill="#011023"/>
<path d="M148.699 58.4188L124.097 83.0263H125.615L148.699 59.9368V58.4188Z" fill="#011023"/>
<path d="M148.699 61.8222L127.499 83.0272H129.017L148.699 63.3402V61.8222Z" fill="#011023"/>
<path d="M148.699 68.6261L134.304 83.0262H135.822L148.699 70.1493V68.6261Z" fill="#011023"/>
<path d="M148.699 72.0295L137.706 83.0272H139.224L148.699 73.5528V72.0295Z" fill="#011023"/>
<path d="M148.698 75.4365L141.108 83.0266H142.632L148.698 76.9545V75.4365Z" fill="#011023"/>
<path d="M148.699 78.8392L144.511 83.0268H146.034L148.699 80.3572V78.8392Z" fill="#011023"/>
</svg>

<svg xmlns="http://www.w3.org/2000/svg" width="200" height="200" fill="none"><path fill="#F8F9F0" d="M100 0C44.77 0 0 44.77 0 100s44.77 100 100 100c55.224 0 100-44.771 100-100S155.224 0 100 0"/><path fill="#011023" d="M100 20c-44.182 0-80 35.818-80 80s35.818 80 80 80 80-35.818 80-80-35.818-80-80-80"/><path fill="#F8F9F0" d="M82.565 131.664c3.214 3.424 7.203 5.606 11.971 6.533v-32.532a30 30 0 0 0-2.099-.702 32 32 0 0 0-2.873-.696 126 126 0 0 1-11.349-3.664c-3.732-1.398-7.077-3.272-10.03-5.606q-4.435-3.502-7.066-8.716-2.645-5.214-2.643-13.002 0-7.948 3.03-14.003c2.021-4.046 4.686-7.448 8.004-10.196 3.308-2.754 7.145-4.884 11.5-6.381 4.35-1.508 8.862-2.408 13.526-2.727V28h9.166v11.987c4.664.518 9.045 1.534 13.139 3.03 4.093 1.508 7.7 3.587 10.804 6.23q4.656 3.974 7.616 9.888 2.953 5.92 3.418 14.008H116.61c-.11-4.151-1.397-7.68-3.889-10.59-2.486-2.905-5.491-4.365-9.008-4.365v27.549c1.245.314 2.512.623 3.81.937 1.298.309 2.67.675 4.12 1.088 7.674 2.073 13.573 4.649 17.719 7.706 4.14 3.057 7.202 6.26 9.165 9.574q2.952 4.971 3.502 9.966c.361 3.324.539 6.271.539 8.867 0 2.288-.565 5.156-1.706 8.637s-3.188 6.868-6.14 10.192c-2.958 3.324-6.915 6.287-11.893 8.878-4.973 2.596-11.348 4.145-19.116 4.669v13.227h-9.166v-13.227c-11.605-.827-20.676-4.408-27.199-10.736q-9.8-9.492-11.348-27.863h21.922c-.115 5.92 1.44 10.578 4.643 14.012m6.847-72.691a13.7 13.7 0 0 0-4.507 2.408 11.8 11.8 0 0 0-3.183 4.046c-.774 1.612-1.167 3.502-1.167 5.674 0 3.434 1.084 6.072 3.266 7.94 2.173 1.864 5.748 3.372 10.726 4.513V58.187c-1.775 0-3.481.262-5.135.786m20.132 77.905c2.02-.681 3.837-1.639 5.438-2.879a15.3 15.3 0 0 0 3.958-4.601c1.031-1.806 1.56-3.963 1.56-6.46 0-4.046-1.272-7.077-3.811-9.102q-3.808-3.032-12.976-5.523v29.884c1.858-.204 3.81-.644 5.831-1.319"/><path fill="#011023" d="M104.478 38.806v.738l.743-.738zM107.063 38.806l-2.585 2.58v1.519l4.103-4.099zM110.466 38.806l-5.988 5.983v1.518l7.506-7.501zM113.868 38.806l-9.39 9.385v1.518l10.908-10.903zM117.271 38.806l-12.793 12.788v1.523l14.311-14.311zM120.673 38.806l-16.195 16.19v1.523l17.713-17.713zM124.076 38.806l-19.598 19.598v1.518l21.121-21.116zM127.478 38.806l-23 23v1.518l24.523-24.518zM130.886 38.806l-26.408 26.403v1.518l27.926-27.921zM134.288 38.806l-29.81 29.805v1.518l31.328-31.323zM137.69 38.806l-33.212 33.208v1.518l34.73-34.726zM141.093 38.806l-36.615 36.61v1.518l38.133-38.128zM144.495 38.806l-40.017 40.013v1.517l41.535-41.53zM148.699 38.806h-.801l-43.42 43.415v.806h.717l43.504-43.504zM148.699 41.401l-41.62 41.625h1.518l40.102-40.101zM148.699 44.81l-38.218 38.217h1.524l36.694-36.7zM148.698 48.212l-34.814 34.815h1.523l33.291-33.297zM148.699 51.614l-31.407 31.413h1.518l29.889-29.895zM148.698 55.017l-28.004 28.01h1.518l26.486-26.492zM148.699 58.419l-24.602 24.607h1.518l23.084-23.09zM148.699 61.822l-21.2 21.205h1.518l19.682-19.687zM148.699 68.626l-14.395 14.4h1.518l12.877-12.877zM148.699 72.03l-10.993 10.997h1.518l9.475-9.474zM148.698 75.437l-7.59 7.59h1.524l6.066-6.073zM148.699 78.84l-4.188 4.187h1.523l2.665-2.67z"/></svg>
